src/assets/thumbs-up.svg

<svg fill="none" height="20" viewBox="0 0 20 20" width="20" xmlns="http://www.w3.org/2000/svg"><path clip-rule="evenodd" d="m7.81081 9.78682c-.15806.12503-.32105.22708-.46937.27448v3.8324c0 .5359.17147 1.0192.46937 1.3788.32828.3961.81009.6419 1.38514.6419h5.25385c.2065 0 .4142-.0832.5599-.2287.1239-.1248.1859-.312.1859-.4772 0-.1479-.0413-.2935-.1251-.3963-.1239-.1872-.1446-.3963-.0608-.6054.0826-.2068.2685-.3328.475-.3755.3316-.0612.5794-.3536.5794-.6863 0-.1456-.0401-.2923-.1457-.4171-.1239-.1456-.164-.3327-.1239-.5199.0413-.1883.1664-.3351.3316-.4171.2478-.1248.3936-.3547.3718-.625 0-.2924-.1641-.5419-.4338-.6459-.2283-.0843-.3729-.2715-.3935-.5003-.0207-.22873.0838-.45749.2696-.58343.2066-.14557.3305-.39629.3098-.64585-.0401-.3339-.3935-.62389-.7446-.62389h-2.8558c-.2467 0-.4957-.12594-.6609-.31311-.1653-.20912-.2479-.45868-.2066-.70824l.1859-1.45807c.0425-.27151.0207-.50027-.0206-.68744-.087-.36835-.2731-.69243-.5275-.9442-.0162-.01604-.0326-.03179-.0494-.04724-.1662-.15323-.3588-.27686-.5702-.36381-.2269-.09336-.4754-.14442-.7358-.14442-.0413 0-.0826.0208-.10325.04159-.02065.0208-.04131.06124-.04131.10283v1.70879c0 .93816-.26963 1.85436-.7653 2.64579l-.72399 1.16692c-.14863.18554-.37849.43001-.61984.6209zm-.51338-1.6396c-.36-.39491-.87861-.64272-1.45509-.64272h-1.87387c-1.08716 0-1.96847.88132-1.96847 1.96847v6.55853c0 1.0872.88131 1.9685 1.96847 1.9685h1.87387c.73706 0 1.37951-.4051 1.71685-1.0048.46557.2647 1.01546.4192 1.63676.4192h5.25385c.59 0 1.1833-.2312 1.6201-.6676l.0041-.0042c.4526-.4556.6216-1.0492.6216-1.5341 0-.0952-.0062-.1973-.0205-.3034.5384-.4011.889-1.0404.889-1.7601 0-.1748-.0205-.3636-.0705-.5563.3316-.3872.5348-.8987.5034-1.4832-.0127-.476-.1763-.9329-.4655-1.30177.166-.34298.2469-.73275.2134-1.13702l-.0023-.02775-.0033-.02765c-.0756-.62851-.4233-1.10956-.7854-1.41097-.3651-.30388-.8718-.53381-1.4485-.53381h-2.1501l.0984-.7716c.0709-.47525.0318-.88614-.0416-1.21851l-.0024-.01076-.0025-.01072c-.3624-1.53489-1.719-2.65494-3.3427-2.65494-.46859 0-.88545.20052-1.16758.48462-.27291.27481-.47698.68571-.47698 1.1598v1.70879c0 .65034-.18703 1.29152-.53655 1.84961zm9.76327 3.60838c.0009.0012.0019.0024.0029.0035zm-10.74989-2.28263c0-.25873-.20974-.46847-.46847-.46847h-1.87387c-.25873 0-.46847.20974-.46847.46847v6.55853c0 .2588.20974.4685.46847.4685h1.87387c.25873 0 .46847-.2097.46847-.4685z" fill="#666f7d" fill-rule="evenodd"/></svg>

<svg width="20" height="20" viewBox="0 0 20 20" fill="none" xmlns="http://www.w3.org/2000/svg">
  <path fill-rule="evenodd" clip-rule="evenodd" d="M7.81081 9.78682C7.65275 9.91185 7.48976 10.0139 7.34144 10.0613V13.8937C7.34144 14.4296 7.51291 14.9129 7.81081 15.2725C8.13909 15.6686 8.6209 15.9144 9.19595 15.9144H14.4498C14.6563 15.9144 14.864 15.8312 15.0097 15.6857C15.1336 15.5609 15.1956 15.3737 15.1956 15.2085C15.1956 15.0606 15.1543 14.915 15.0705 14.8122C14.9466 14.625 14.9259 14.4159 15.0097 14.2068C15.0923 14 15.2782 13.874 15.4847 13.8313C15.8163 13.7701 16.0641 13.4777 16.0641 13.145C16.0641 12.9994 16.024 12.8527 15.9184 12.7279C15.7945 12.5823 15.7544 12.3952 15.7945 12.208C15.8358 12.0197 15.9609 11.8729 16.1261 11.7909C16.3739 11.6661 16.5197 11.4362 16.4979 11.1659C16.4979 10.8735 16.3338 10.624 16.0641 10.52C15.8358 10.4357 15.6912 10.2485 15.6706 10.0197C15.6499 9.79097 15.7544 9.56221 15.9402 9.43627C16.1468 9.2907 16.2707 9.03998 16.25 8.79042C16.2099 8.45652 15.8565 8.16653 15.5054 8.16653H12.6496C12.4029 8.16653 12.1539 8.04059 11.9887 7.85342C11.8234 7.6443 11.7408 7.39474 11.7821 7.14518L11.968 5.68711C12.0105 5.4156 11.9887 5.18684 11.9474 4.99967C11.8604 4.63132 11.6743 4.30724 11.4199 4.05547C11.4037 4.03943 11.3873 4.02368 11.3705 4.00823C11.2043 3.855 11.0117 3.73137 10.8003 3.64442C10.5734 3.55106 10.3249 3.5 10.0645 3.5C10.0232 3.5 9.9819 3.5208 9.96125 3.54159C9.9406 3.56239 9.91994 3.60283 9.91994 3.64442V5.35321C9.91994 6.29137 9.65031 7.20757 9.15464 7.999L8.43065 9.16592C8.28202 9.35146 8.05216 9.59593 7.81081 9.78682ZM7.29743 8.14722C6.93743 7.75231 6.41882 7.5045 5.84234 7.5045H3.96847C2.88131 7.5045 2 8.38582 2 9.47297V16.0315C2 17.1187 2.88131 18 3.96847 18H5.84234C6.5794 18 7.22185 17.5949 7.55919 16.9952C8.02476 17.2599 8.57465 17.4144 9.19595 17.4144H14.4498C15.0398 17.4144 15.6331 17.1832 16.0699 16.7468L16.074 16.7426C16.5266 16.287 16.6956 15.6934 16.6956 15.2085C16.6956 15.1133 16.6894 15.0112 16.6751 14.9051C17.2135 14.504 17.5641 13.8647 17.5641 13.145C17.5641 12.9702 17.5436 12.7814 17.4936 12.5887C17.8252 12.2015 18.0284 11.69 17.997 11.1055C17.9843 10.6295 17.8207 10.1726 17.5315 9.80373C17.6975 9.46075 17.7784 9.07098 17.7449 8.66671L17.7426 8.63896L17.7393 8.61131C17.6637 7.9828 17.316 7.50175 16.9539 7.20034C16.5888 6.89646 16.0821 6.66653 15.5054 6.66653H13.3553L13.4537 5.89493C13.5246 5.41968 13.4855 5.00879 13.4121 4.67642L13.4097 4.66566L13.4072 4.65494C13.0448 3.12005 11.6882 2 10.0645 2C9.59591 2 9.17905 2.20052 8.89692 2.48462C8.62401 2.75943 8.41994 3.17033 8.41994 3.64442V5.35321C8.41994 6.00355 8.23291 6.64473 7.88339 7.20282L7.29743 8.14722ZM17.0607 11.7556C17.0616 11.7568 17.0626 11.758 17.0636 11.7591L17.0607 11.7556ZM6.31081 9.47297C6.31081 9.21424 6.10107 9.0045 5.84234 9.0045H3.96847C3.70974 9.0045 3.5 9.21424 3.5 9.47297V16.0315C3.5 16.2903 3.70974 16.5 3.96847 16.5H5.84234C6.10107 16.5 6.31081 16.2903 6.31081 16.0315V9.47297Z" fill="#666F7D"/>
</svg>
